X:524
T:B524-  Willow, Willow
S:(1st/2)
Q:1/4=120
L:1/4
M:3/4
K:Gm
d|d3/2G/A|GGz|zzd/d/|f3/2B/c|\
B3|zzd|d3/2G/ B/c/|dd2|\
zzd/d/|fBc|dBd/d/|c3/2B/ A/G/|\
A2f|=e/d/ c/B/ A/A/|GGg|^f/=e/ d/c/ =B/A/|\
=BG_B|A3/2G/A|G2B|B3/2B/c|\
dd2|f3/2d/ e/c/|dd2|zzg|\
f3/2d/ e/c/|d3/2c/B|AGA|.G3|]
